X:158
M:6/8
L:1/8
K:G
|: ded d3 | DED D3 | cdc c3 | DED D3 | G2D G2A | BcB B2A | G2D GcB | AGF G3 :|

